X: 37086
T: Silver Tassie, The
R: barndance
M: 4/4
K: Cmajor
C|C2 E>F G2 AB|cBAG E3 E|D2 E>G c3 d|edcB A2 GE|
C2 E>F G2 AB|cBAG E3 G|e3 d c<A G<E|D2 E>G A2 G||
G|c2 c/d/e/d/ c3 A|GBcG E3 E|D2 E>G c3 c|edcB A2 GG|
c2 cd/e/ A2 AB/c/|G2 f>e d3 B|c3 B AG/A/ cE|D2 E>G A2 G||

